; Instrument calibration GCODE – one axis at a time, known lengths and feedrates
; Generated by scripts/generate_instrument_gcode.py
; Use as ground truth: record audio and compare MIDI to this manifest.
G90   ; absolute positioning
G21   ; units mm

; --- X axis: 20.0 mm segments at feedrates [300, 600, 900, 1200, 1500, 2000, 2500, 3000] mm/min ---
G1 X50.00 Y50.00 Z10.00 F300
G1 X70.00 Y50.00 Z10.00 F300
G1 X90.00 Y50.00 Z10.00 F600
G1 X110.00 Y50.00 Z10.00 F900
G1 X130.00 Y50.00 Z10.00 F1200
G1 X150.00 Y50.00 Z10.00 F1500
G1 X170.00 Y50.00 Z10.00 F2000
G1 X190.00 Y50.00 Z10.00 F2500
G1 X210.00 Y50.00 Z10.00 F3000
G1 X50.00 Y50.00 Z10.00 F300

; Pause 2.0s before Y section
G4 S2.0

; --- Y axis: 20.0 mm segments at feedrates [300, 600, 900, 1200, 1500, 2000, 2500, 3000] mm/min ---
G1 X50.00 Y50.00 Z10.00 F300
G1 X50.00 Y70.00 Z10.00 F300
G1 X50.00 Y90.00 Z10.00 F600
G1 X50.00 Y110.00 Z10.00 F900
G1 X50.00 Y130.00 Z10.00 F1200
G1 X50.00 Y150.00 Z10.00 F1500
G1 X50.00 Y170.00 Z10.00 F2000
G1 X50.00 Y190.00 Z10.00 F2500
G1 X50.00 Y210.00 Z10.00 F3000
G1 X50.00 Y50.00 Z10.00 F300

; Pause 2.0s before Z section
G4 S2.0

; --- Z axis: 20.0 mm segments at feedrates [300, 600, 900, 1200, 1500, 2000, 2500, 3000] mm/min ---
G1 X50.00 Y50.00 Z10.00 F300
G1 X50.00 Y50.00 Z30.00 F300
G1 X50.00 Y50.00 Z50.00 F600
G1 X50.00 Y50.00 Z70.00 F900
G1 X50.00 Y50.00 Z90.00 F1200
G1 X50.00 Y50.00 Z110.00 F1500
G1 X50.00 Y50.00 Z130.00 F2000
G1 X50.00 Y50.00 Z150.00 F2500
G1 X50.00 Y50.00 Z170.00 F3000
G1 X50.00 Y50.00 Z10.00 F300

; End calibration